X: 46
T: POLKAS: Toureendarby Set
T: Toureendarby / Curragh Races
C: C: Trad.; S: Timmy O'Connor; Laoise Kelly / Séamus Begley / Jackie Daly & Séamus Creagh
C: Set Leaders: Tania, Anton, André, Vova
Z: Anton Zille ed. arr., Oleg Naumov arr.; Weejie / CreadurMawnOrganig / benhockenberry at The Session
N: https://www.soundslice.com/slices/CLHRc/
N: https://thesession.org/members/26966/sets/89997
R: Polka
M: 2/4
L: 1/8
Q: 1/4=140
K: Edor
|:"Em"BE FE|"Em"BE FE|"D"D>E FA|"D"DE FA|
"Em"BE FE|"Em"BE FE|"D"D>E FA|1 "Em"FE EA:|2 "D"FE "Em"E2||
|:"C"e2 dB|"C"ef/e/ dB|"D"AF dF|"D"AB/c/ d2|
"C (Am)"ef/e/ dB|"C (Bm)"ef/e/ dB|"D (C)"AF dF|1 "D"FE "Em"EB:|2 "D"FE "(Bm)"d>c||
T: Siege of Ennis / Banks of Inverness
K: Gmaj
|:"G"D>E DB,|"G"DE G>A|"C"Bd AB/A/|"D"GE cE|
"G"D>E DB,|"G"DE G>A|"C"Bd "D"AB/A/|1 "G"G2 G/A/G/E/:|2 "G"G2 G>A||
"G"Bd dB|"C"ce e>d|"G"Bd AB/A/|"D"GE ED|
"G"Bd d>B|"C"ce e>f|"G"gf "D/F#"ed|"Em"e2 e>f|
"Em"ge fd|"Em"e/f/e/d/ BA|"C"Bd AB/A/|"D"GE cE|
"G"D>E DB,|"G"DE G>A|"C"Bd "D"AB/A/|"G"G2 G>A||
|:"G"Bd Bd|"G"Bd dB/d/|"C"ed Bd|"D"ed B>A|
"G"Bd Bd|"G"Bd dB/d/|"C"ed "D"BA|"G"AG G2:||
|:"G"GB d2|"C"ed c2|"G"dB GB|"D"A/B/A/G/ ED|
"G (Em)"GB d>d|"C"ed c>e|"C (G)"dB GE|1 "D"ED D2:|2 "C"ED "D"GE||
T: Britches Full of Stitches (Gmaj)
K: Gmaj
|:"G"G>A BG|"G"AG BG|"G"G>A BG|"C"AG "D"E2|
"G"G>A BG|"Em"AG "D"Bd|"C"G>A GE|"D"ED D2:||
|:"G (Em)"d>e dB|"(C)"AG "D"AB|"G"d>e dB|"C"AG "D"E2|
"Em"d>e dB|"Em"AG "D"AB|"C"G>A GE|1 "C"ED "D"D2:|2 "C"ED "D"DE||

